src/icons/support-code.svg

<?xml version="1.0" encoding="UTF-8"?>
<svg width="60px" height="60px" viewBox="0 0 60 60" version="1.1" xmlns="http://www.w3.org/2000/svg" xmlns:xlink="http://www.w3.org/1999/xlink">
    <!-- Generator: Sketch 59 (86127) - https://sketch.com -->
    <title>HDL/Icon/Standard/Support/code</title>
    <desc>Created with Sketch.</desc>
    <g id="Colors" stroke="none" stroke-width="1" fill="none" fill-rule="evenodd">
        <g id="Support-Icons" transform="translate(-100.000000, -670.000000)">
            <g id="HDL/Icon/Standard/Support/code" transform="translate(100.000000, 670.000000)">
                <g id="ICON">
                    <circle id="Oval" fill="#D4ECFC" cx="30" cy="30" r="30"></circle>
                    <g id="HDL/Icon/Larger/Command/echo" transform="translate(18.000000, 21.000000)" fill="#25A6F7">
                        <path d="M7.2,4.75 C7.2,4.096875 6.66,3.5625 6,3.5625 C5.664,3.5625 5.364,3.693125 5.148,3.906875 L0.348,8.656875 C0.132,8.870625 0,9.1675 0,9.5 C0,9.8325 0.132,10.129375 0.348,10.343125 L5.148,15.093125 C5.364,15.306875 5.664,15.4375 6,15.4375 C6.66,15.4375 7.2,14.903125 7.2,14.25 C7.2,13.9175 7.068,13.620625 6.852,13.406875 L2.892,9.5 L6.84,5.593125 C7.068,5.379375 7.2,5.0825 7.2,4.75 Z M14.4,0 C13.848,0 13.404,0.368125 13.26,0.866875 L8.46,17.491875 C8.436,17.59875 8.4,17.69375 8.4,17.8125 C8.4,18.465625 8.94,19 9.6,19 C10.152,19 10.596,18.631875 10.74,18.133125 L15.54,1.508125 C15.564,1.40125 15.6,1.30625 15.6,1.1875 C15.6,0.534375 15.06,0 14.4,0 Z M23.652,8.656875 L18.852,3.906875 C18.636,3.693125 18.336,3.5625 18,3.5625 C17.34,3.5625 16.8,4.096875 16.8,4.75 C16.8,5.0825 16.932,5.379375 17.148,5.593125 L21.108,9.5 L17.16,13.406875 C16.932,13.620625 16.8,13.9175 16.8,14.25 C16.8,14.903125 17.34,15.4375 18,15.4375 C18.336,15.4375 18.636,15.306875 18.852,15.093125 L23.652,10.343125 C23.868,10.129375 24,9.8325 24,9.5 C24,9.1675 23.868,8.870625 23.652,8.656875 Z" id="Shape"></path>
                    </g>
                </g>
            </g>
        </g>
    </g>
</svg>

<?xml version="1.0" encoding="utf-8"?>
<!-- Generator: Adobe Illustrator 20.1.0, SVG Export Plug-In . SVG Version: 6.00 Build 0)  -->
<svg version="1.1" id="Layer_1" xmlns="http://www.w3.org/2000/svg" xmlns:xlink="http://www.w3.org/1999/xlink" x="0px" y="0px"
	 viewBox="0 0 60 60" style="enable-background:new 0 0 60 60;" xml:space="preserve">
<style type="text/css">
	.st0{fill:#D4ECFC;}
	.st1{fill:#25A6F7;}
</style>
<title>HDL/Icon/Standard/Support/code</title>
<desc>Created with Sketch.</desc>
<g id="Colors">
	<g id="Support-Icons" transform="translate(-100.000000, -670.000000)">
		<g id="HDL_x2F_Icon_x2F_Standard_x2F_Support_x2F_code" transform="translate(100.000000, 670.000000)">
			<g id="ICON">
				<circle id="Oval" class="st0" cx="30" cy="30" r="30"/>
				<g id="HDL_x2F_Icon_x2F_Larger_x2F_Command_x2F_echo" transform="translate(18.000000, 21.000000)">
					<path id="Shape" class="st1" d="M7.2,4.8c0-0.7-0.5-1.2-1.2-1.2c-0.3,0-0.6,0.1-0.9,0.3L0.3,8.7C0.1,8.9,0,9.2,0,9.5
						s0.1,0.6,0.3,0.8l4.8,4.8c0.2,0.2,0.5,0.3,0.9,0.3c0.7,0,1.2-0.5,1.2-1.2c0-0.3-0.1-0.6-0.3-0.8l-4-3.9l3.9-3.9
						C7.1,5.4,7.2,5.1,7.2,4.8z M14.4,0c-0.6,0-1,0.4-1.1,0.9L8.5,17.5c0,0.1-0.1,0.2-0.1,0.3c0,0.7,0.5,1.2,1.2,1.2
						c0.6,0,1-0.4,1.1-0.9l4.8-16.6c0-0.1,0.1-0.2,0.1-0.3C15.6,0.5,15.1,0,14.4,0z M23.7,8.7l-4.8-4.8c-0.2-0.2-0.5-0.3-0.9-0.3
						c-0.7,0-1.2,0.5-1.2,1.2c0,0.3,0.1,0.6,0.3,0.8l4,3.9l-3.9,3.9c-0.2,0.2-0.4,0.5-0.4,0.8c0,0.7,0.5,1.2,1.2,1.2
						c0.3,0,0.6-0.1,0.9-0.3l4.8-4.8c0.2-0.2,0.3-0.5,0.3-0.8S23.9,8.9,23.7,8.7z"/>
				</g>
			</g>
		</g>
	</g>
</g>
</svg>
